X:1
T:Bredon Hill and Other Songs
T:Oh Fair Enough are Sky and Plain
T:Bredon Hill and Other Songs
T:George Butterworth
T:2. Oh Fair Enough are Sky and Plain
T:Alfred Edward Housman
T:Creative Commons copyright waiver (CC0 1.0 Universal)
T:Creative Commons copyright waiver (CC0 1.0 Universal)
T:Creative Commons copyright waiver (CC0 1.0 Universal)
C:George Butterworth
Z:Alfred Edward Housman
Z:Creative Commons copyright waiver (CC0 1.0 Universal)
%%score 1 { ( 2 4 ) | ( 3 5 ) }
L:1/8
Q:1/4=114
M:4/4
K:Bb
V:1 treble nm="Voice"
V:2 treble nm="Piano"
V:4 treble 
V:3 bass 
V:5 bass 
V:1
"^Molto moderato, espressivo e senza rigore" z8 | z8 | z2!p!!<(! c2 e3!<)! d | B2 G2 F3 D | %4
w: ||Oh fair e-|nough are sky and|
 G2 z!p! F D2 B,2 | !>!E3 E D4- | D2 z2!<(! d2 c d | =e4-!<)! e!>(! d c A | F4!>)! z!p! F F F | %9
w: plain, But I know|fair- er far:|_ Those are as|beau- * ti- ful a-|gain That in the|
[Q:1/4=116] c6 A2 | F4 z2 z!pp! D | D3 D D2 D2 | D3 D A3 A | B3 B A3 G | A4- A z z A | %15
w: wa- ter|are; The|pools and ri- vers|wash so clean The|trees and clouds and|air, _ The|
 =E3/2 E/ E2- E E E E | =E2 z!<(! E =B4-!<)! | B!>(! A G4!>)! =E2 |[Q:1/4=114] A,4 z4 | z8 | %20
w: like on earth _ was ne- ver|seen, And oh|_ that I were|there.||
 z2"^meno piano"!mp! A4 =B ^c | d3 ^c =B A A2- | A =B A G ^F2 =E2 | %23
w: These are the|thoughts I of- ten think|_ As I stand gaz- ing|
[Q:1/4=115] A,2 z A,"^cresc.                  ed                    accel." D3 =E | %24
w: down In act up-|
[Q:1/4=117] ^F =E F G A2 z A |[Q:1/4=119] A3 G =B3 A |[Q:1/4=125]!>(! =c8-!>)! | %27
w: on the cres- sy brink To|strip and dive and|drown;|
[Q:1/4=114]"^Tempo I"[Q:1/4=114] c2 z2 z4 | z8 | z2!p!!<(! A4 B c!<)! | d3 G F D!>(! x2- | %31
w: _||But in the|gold- en sand- ed brooks|
 G!>)! z!p! F2 D2 B,2 | E3 D D4- | D!<(! d c d =e3!<)! d |!>(! c3!>)! A F4 | z2 z!<(! F c2!<)! A2 | %36
w: * And a- zure|meres I spy|_ A sil- ly lad that|longs and looks|And wish- es|
 z2!>(! G4 F2!>)! |!<(! D8-!<)! | D4- D2 !fermata!z2 |[Q:1/4=104] z8 | z8 | z8 | z8 | %43
w: he were|I.|_ _|||||
 !fermata!z8 |] %44
w: |
V:2
!mf!!>(! ((!arpeggio![Fcg]8!>)! | !arpeggio![DGd]2)) z2 z4 |!p!!>(! ((!arpeggio![Fcg]8!>)! | %3
 !arpeggio![DGd]2)) z2 z4 | z8 |!p!!>(! (!arpeggio![Ae]4!>)! !arpeggio![^FA]2) z2 | z8 | %7
 z4!mf! !arpeggio![GBd=e]2 z2 | z4!p! !arpeggio![Acf]2 z2 | z4"^espressivo" (a4 | b3 a f3) (f | %11
 g3 f d3) (d | =e3 d!<(! e2 f2!<)! | [fa]6-!>(! [fa][=eg] | [^c=e]4-)!>)! [ce] z z!pp! (a | %15
!p! ^c'3 =b g3) (g | a3 g =e3) (e |!<(! g3 =e g2 =b2)!<)! |!pp!!>(! ((!arpeggio![^cg=e']8!>)! | %19
 !arpeggio![Ada]2)) z2 z4 |!pp!!>(! ((!arpeggio![G^ca]8!>)! | !arpeggio![DAd]2)) z2 z4 | %22
!p!!>(! ((!arpeggio![G^ca]8!>)! | !arpeggio![DAd]2)) z2 z4 | %24
!mp!"_cresc.                ed                  accel." ((!arpeggio![G^ca]6 !arpeggio![DAd]2)) | %25
 z2 !arpeggio![G^ca]2 z2 !arpeggio![DGd]2 | z4 [F=cg]4- |!>(! (([Fcg]4!>)! !arpeggio![DGd]2)) z2 | %28
 z2!p!!<(! d3 d- (3ddd!<)! |!>(! ((!arpeggio![Fcg]8!>)! | !arpeggio![DGd]2)) z2 z4 | z8 | %32
!>(! (!arpeggio![Ae]4!>)! !arpeggio![^FA]2) z2 | z4!mf! !arpeggio![GBd=e]2 z2 | %34
!p! !arpeggio![Acf]2 z2 z4 | z4!p! !arpeggio![FA]2 z2 | z8 | z4!pp! !arpeggio![Gd]2 z2 | %38
 z2 !arpeggio![Gc]2 !fermata!z4 |!ppp! ((!arpeggio![A,CG]8 | !arpeggio![B,D]2)) z2 z4 | %41
!pp!!<(! (!arpeggio![A,=B,G]8!<)! |!>(! !arpeggio!D6 C2)!>)! |!ppp! !fermata![=Bgd']8 |] %44
V:3
 (([G,,E,A,]8 | [G,,D,B,]2)) z2 z4 | (([G,,E,A,]8 | [G,,D,B,]2)) z2 z4 | z8 | z8 | z8 | %7
 z4!ped! [G,B,D=E]2!ped-up! z2 | z4!ped! [A,CF]2!ped-up! z2 |[K:treble] x8 | (DFd) z z (CDA) | %11
 z (B,DG) z (A,DF) |[K:bass] z (G,B,=E) z (F,A,D) | z!<(! (=E,B,D!<)![K:treble]!>(! =EBd)!>)! z | %14
 z!<(! (A,^C=E!<)!!>(! A^c=e)!>)! z |!<(!!ped! z (=EG=B!<)!!>(! =eBGE)!ped-up!!>)! | %16
!<(!!ped! z (D=E=B!<)!!>(! dBED)!ped-up!!>)! |!<(!!ped! z (^C=EG!<)!!>(! =BGEC)!ped-up!!>)! | %18
!ped! (([A,=E=B]8!ped-up! | [A,^F]2)) z2 z4 |[K:bass] (([A,,=E,=B,]8 | [A,,^F,]2)) z2 z4 | %22
 (([A,,=E,=B,]8 | [A,,^F,]2)) z2 z4 | (([A,,=E,=B,]6 [A,,^F,]2)) | z2 [A,,=E,=B,]2 z2 [A,,=F,B,]2 | %26
 z4 [G,,_E,A,]4- | (([G,,E,A,]4 [G,,D,B,]2)) z2 | z8 | (([G,,E,A,]8 | [G,,D,B,]2)) z2 z4 | z8 | %32
 z8 | z4!ped! [G,B,D=E]2!ped-up! z2 |!ped! [A,CF]2!ped-up! z2 z4 | z4!ped! [CD]2!ped-up! z2 | z8 | %37
 z4!ped! [B,D]2!ped-up! z2 | z2!ped! [A,D]2!ped-up! !fermata!z4 | (([G,,E,F,]8 | %40
 [G,,=E,]2)) z2 z4 | (([G,,F,]8 | [G,,=E,G,]2)) z2 z4 | !fermata![G,,D,=B,]8 |] %44
V:4
 x8 | x8 | x8 | x8 | x8 | (!>![CG]4 D2) x2 | x8 | x8 | x8 | x4 !arpeggio![c=e]2 z2 | x8 | x8 | x8 | %13
 x8 | x8 | x8 | x8 | x8 | x8 | x8 | x8 | x8 | x8 | x8 | x8 | x8 | x8 | x8 | x8 | x8 | x8 | x8 | %32
 ([CG]4 D2) x2 | x8 | x8 | x8 | x8 | x8 | x8 | x8 | x8 | x8 | x8 | x8 |] %44
V:5
 x8 | x8 | x8 | x8 | x8 | x8 | x8 | x8 | x8 |[K:treble] z4!pp! [C=EA]2 z2 | x8 | x8 |[K:bass] x8 | %13
 x4[K:treble] x4 | x8 | x8 | x8 | x8 | x8 | x8 |[K:bass] x8 | x8 | x8 | x8 | x8 | x8 | x8 | x8 | %28
 x8 | x8 | x8 | x8 | x8 | x8 | x8 | x8 | x8 | x8 | x8 | x8 | x8 | x8 | x8 | x8 |] %44

